icons/ne.svg

<?xml version="1.0" ?>
<svg xmlns="http://www.w3.org/2000/svg" xmlns:ev="http://www.w3.org/2001/xml-events" xmlns:xlink="http://www.w3.org/1999/xlink" baseProfile="full" height="458px" version="1.1" viewBox="-1021.4695876467147 432.68347588021504 12289.890935723493 9372.63304823957" width="600px">
	<defs/>
	<path d="M 6362.0,8183.0 L 4960.0,7345.0 L 4374.0,6865.0 C 4051.0,6601.0 3773.0,6377.0 3756.0,6368.0 C 3738.0,6358.0 3532.0,6315.0 3255.0,6264.0 C 2997.0,6216.0 2784.0,6177.0 2783.0,6176.0 C 2781.0,6174.0 2732.0,5111.0 2715.0,4700.0 C 2707.0,4494.0 2697.0,4284.0 2694.0,4234.0 L 2688.0,4143.0 L 2608.0,4104.0 L 2528.0,4065.0 L 2474.0,3970.0 C 2422.0,3877.0 2417.0,3872.0 2315.0,3800.0 C 2237.0,3745.0 2208.0,3719.0 2200.0,3696.0 L 2190.0,3665.0 L 2003.0,3674.0 C 1842.0,3682.0 1813.0,3681.0 1786.0,3667.0 C 1761.0,3655.0 1647.0,3646.0 1240.0,3625.0 C 957.0,3611.0 711.0,3597.0 693.0,3594.0 C 668.0,3590.0 652.0,3577.0 623.0,3535.0 L 585.0,3480.0 L 480.0,3480.0 C 396.0,3480.0 354.0,3474.0 268.0,3451.0 L 161.0,3422.0 L 121.0,3452.0 L 81.0,3481.0 L 46.0,3454.0 L 12.0,3427.0 L 10.0,3326.0 C 3.0,3053.0 4.0,3050.0 58.0,3026.0 C 97.0,3008.0 97.0,3007.0 104.0,2940.0 C 109.0,2886.0 118.0,2858.0 150.0,2802.0 C 187.0,2738.0 198.0,2727.0 307.0,2655.0 C 372.0,2612.0 444.0,2569.0 467.0,2561.0 C 497.0,2550.0 526.0,2526.0 565.0,2480.0 C 595.0,2444.0 620.0,2410.0 620.0,2404.0 C 620.0,2399.0 613.0,2385.0 605.0,2374.0 C 591.0,2355.0 590.0,2355.0 551.0,2378.0 C 529.0,2390.0 508.0,2400.0 505.0,2400.0 C 502.0,2400.0 501.0,2349.0 502.0,2288.0 L 505.0,2175.0 L 596.0,2125.0 C 654.0,2093.0 715.0,2048.0 762.0,2004.0 L 836.0,1934.0 L 930.0,1919.0 L 1025.0,1904.0 L 1089.0,1932.0 C 1124.0,1948.0 1157.0,1959.0 1161.0,1958.0 C 1166.0,1956.0 1196.0,1924.0 1229.0,1885.0 L 1289.0,1815.0 L 1223.0,1748.0 C 1174.0,1698.0 1159.0,1678.0 1167.0,1668.0 C 1172.0,1661.0 1223.0,1597.0 1279.0,1527.0 L 1382.0,1398.0 L 1402.0,1431.0 C 1421.0,1462.0 1421.0,1470.0 1410.0,1533.0 C 1403.0,1570.0 1400.0,1603.0 1401.0,1604.0 C 1403.0,1606.0 1447.0,1631.0 1499.0,1660.0 L 1593.0,1712.0 L 1679.0,1627.0 C 1726.0,1581.0 1787.0,1530.0 1813.0,1514.0 C 1851.0,1491.0 1870.0,1469.0 1901.0,1414.0 C 1922.0,1374.0 1947.0,1340.0 1955.0,1336.0 C 1963.0,1333.0 2003.0,1305.0 2044.0,1274.0 L 2119.0,1218.0 L 2152.0,1241.0 C 2170.0,1253.0 2186.0,1264.0 2188.0,1266.0 C 2190.0,1267.0 2182.0,1303.0 2171.0,1346.0 C 2153.0,1417.0 2152.0,1426.0 2167.0,1453.0 C 2177.0,1474.0 2180.0,1497.0 2176.0,1528.0 C 2173.0,1552.0 2177.0,1618.0 2186.0,1673.0 L 2202.0,1775.0 L 2288.0,1841.0 C 2370.0,1904.0 2380.0,1915.0 2458.0,2044.0 L 2540.0,2181.0 L 2540.0,2283.0 L 2540.0,2386.0 L 2612.0,2446.0 C 2651.0,2478.0 2692.0,2511.0 2703.0,2519.0 C 2713.0,2526.0 2785.0,2550.0 2863.0,2571.0 L 3003.0,2610.0 L 3036.0,2589.0 C 3067.0,2570.0 3075.0,2570.0 3175.0,2580.0 C 3271.0,2590.0 3285.0,2594.0 3328.0,2625.0 C 3426.0,2695.0 3569.0,2675.0 3757.0,2565.0 C 3849.0,2511.0 3853.0,2510.0 3928.0,2510.0 L 4005.0,2509.0 L 4097.0,2427.0 C 4171.0,2362.0 4207.0,2319.0 4274.0,2219.0 C 4347.0,2110.0 4363.0,2092.0 4390.0,2086.0 C 4440.0,2076.0 4443.0,2077.0 4506.0,2125.0 C 4562.0,2167.0 4568.0,2169.0 4632.0,2170.0 C 4692.0,2170.0 4714.0,2176.0 4833.0,2229.0 L 4966.0,2288.0 L 5080.0,2267.0 L 5195.0,2247.0 L 5251.0,2186.0 C 5298.0,2135.0 5334.0,2110.0 5456.0,2044.0 L 5605.0,1963.0 L 5848.0,1944.0 L 6092.0,1925.0 L 6167.0,2007.0 C 6210.0,2055.0 6286.0,2121.0 6344.0,2163.0 L 6445.0,2237.0 L 6522.0,2227.0 C 6593.0,2219.0 6605.0,2220.0 6697.0,2248.0 C 6845.0,2293.0 6976.0,2311.0 7085.0,2299.0 C 7258.0,2281.0 7427.0,2241.0 7546.0,2189.0 L 7658.0,2140.0 L 7802.0,2140.0 L 7947.0,2140.0 L 8126.0,2275.0 C 8248.0,2367.0 8313.0,2410.0 8331.0,2410.0 C 8395.0,2410.0 8416.0,2421.0 8444.0,2468.0 C 8464.0,2501.0 8470.0,2522.0 8466.0,2542.0 C 8460.0,2574.0 8418.0,2639.0 8357.0,2713.0 L 8317.0,2761.0 L 8330.0,2820.0 L 8343.0,2880.0 L 8388.0,2880.0 C 8423.0,2880.0 8442.0,2887.0 8482.0,2917.0 C 8531.0,2953.0 8538.0,2953.0 8552.0,2918.0 C 8554.0,2915.0 8571.0,2910.0 8590.0,2908.0 L 8625.0,2905.0 L 8622.0,2966.0 L 8618.0,3027.0 L 8663.0,3039.0 C 8705.0,3051.0 8709.0,3055.0 8720.0,3099.0 C 8728.0,3128.0 8748.0,3161.0 8775.0,3190.0 C 8816.0,3233.0 8818.0,3239.0 8825.0,3313.0 L 8832.0,3392.0 L 9385.0,4030.0 L 9937.0,4668.0 L 9944.0,4902.0 C 9957.0,5335.0 10011.0,5952.0 10065.0,6285.0 C 10084.0,6401.0 10102.0,6542.0 10106.0,6599.0 C 10113.0,6701.0 10115.0,6706.0 10162.0,6789.0 C 10190.0,6836.0 10218.0,6882.0 10226.0,6891.0 C 10234.0,6899.0 10240.0,6918.0 10240.0,6931.0 C 10240.0,6957.0 10220.0,6971.0 10125.0,7010.0 C 10050.0,7041.0 10002.0,7079.0 9974.0,7126.0 C 9957.0,7155.0 9938.0,7172.0 9915.0,7180.0 C 9887.0,7189.0 9881.0,7197.0 9875.0,7230.0 C 9869.0,7265.0 9872.0,7276.0 9903.0,7317.0 C 9960.0,7395.0 9960.0,7392.0 9861.0,7527.0 C 9812.0,7594.0 9767.0,7658.0 9760.0,7670.0 C 9754.0,7681.0 9745.0,7778.0 9740.0,7888.0 C 9729.0,8118.0 9721.0,8190.0 9685.0,8359.0 C 9670.0,8428.0 9653.0,8528.0 9647.0,8582.0 L 9635.0,8680.0 L 9393.0,8568.0 L 9151.0,8457.0 L 8921.0,8619.0 C 8795.0,8707.0 8681.0,8784.0 8668.0,8790.0 C 8648.0,8798.0 7783.0,9020.0 7770.0,9020.0 C 7767.0,9020.0 7133.0,8643.0 6362.0,8183.0" fill="pink"/>
</svg>

<?xml version="1.0" standalone="no"?>
<!DOCTYPE svg PUBLIC "-//W3C//DTD SVG 20010904//EN"
 "http://www.w3.org/TR/2001/REC-SVG-20010904/DTD/svg10.dtd">
<svg version="1.0" xmlns="http://www.w3.org/2000/svg"
 width="1024.000000pt" height="1024.000000pt" viewBox="0 0 1024.000000 1024.000000"
 preserveAspectRatio="xMidYMid meet">
<metadata>
Created by potrace 1.10, written by Peter Selinger 2001-2011
</metadata>
<g transform="translate(0.000000,1024.000000) scale(0.100000,-0.100000)"
fill="#000000" stroke="none">
<path d="M6362 8183 l-1402 -838 -586 -480 c-323 -264 -601 -488 -618 -497
-18 -10 -224 -53 -501 -104 -258 -48 -471 -87 -472 -88 -2 -2 -51 -1065 -68
-1476 -8 -206 -18 -416 -21 -466 l-6 -91 -80 -39 -80 -39 -54 -95 c-52 -93
-57 -98 -159 -170 -78 -55 -107 -81 -115 -104 l-10 -31 -187 9 c-161 8 -190 7
-217 -7 -25 -12 -139 -21 -546 -42 -283 -14 -529 -28 -547 -31 -25 -4 -41 -17
-70 -59 l-38 -55 -105 0 c-84 0 -126 -6 -212 -29 l-107 -29 -40 30 -40 29 -35
-27 -34 -27 -2 -101 c-7 -273 -6 -276 48 -300 39 -18 39 -19 46 -86 5 -54 14
-82 46 -138 37 -64 48 -75 157 -147 65 -43 137 -86 160 -94 30 -11 59 -35 98
-81 30 -36 55 -70 55 -76 0 -5 -7 -19 -15 -30 -14 -19 -15 -19 -54 4 -22 12
-43 22 -46 22 -3 0 -4 -51 -3 -112 l3 -113 91 -50 c58 -32 119 -77 166 -121
l74 -70 94 -15 95 -15 64 28 c35 16 68 27 72 26 5 -2 35 -34 68 -73 l60 -70
-66 -67 c-49 -50 -64 -70 -56 -80 5 -7 56 -71 112 -141 l103 -129 20 33 c19
31 19 39 8 102 -7 37 -10 70 -9 71 2 2 46 27 98 56 l94 52 86 -85 c47 -46 108
-97 134 -113 38 -23 57 -45 88 -100 21 -40 46 -74 54 -78 8 -3 48 -31 89 -62
l75 -56 33 23 c18 12 34 23 36 25 2 1 -6 37 -17 80 -18 71 -19 80 -4 107 10
21 13 44 9 75 -3 24 1 90 10 145 l16 102 86 66 c82 63 92 74 170 203 l82 137
0 102 0 103 72 60 c39 32 80 65 91 73 10 7 82 31 160 52 l140 39 33 -21 c31
-19 39 -19 139 -9 96 10 110 14 153 45 98 70 241 50 429 -60 92 -54 96 -55
171 -55 l77 -1 92 -82 c74 -65 110 -108 177 -208 73 -109 89 -127 116 -133 50
-10 53 -9 116 39 56 42 62 44 126 45 60 0 82 6 201 59 l133 59 114 -21 115
-20 56 -61 c47 -51 83 -76 205 -142 l149 -81 243 -19 244 -19 75 82 c43 48
119 114 177 156 l101 74 77 -10 c71 -8 83 -7 175 21 148 45 279 63 388 51 173
-18 342 -58 461 -110 l112 -49 144 0 145 0 179 135 c122 92 187 135 205 135
64 0 85 11 113 58 20 33 26 54 22 74 -6 32 -48 97 -109 171 l-40 48 13 59 13
60 45 0 c35 0 54 7 94 37 49 36 56 36 70 1 2 -3 19 -8 38 -10 l35 -3 -3 61 -4
61 45 12 c42 12 46 16 57 60 8 29 28 62 55 91 41 43 43 49 50 123 l7 79 553
638 552 638 7 234 c13 433 67 1050 121 1383 19 116 37 257 41 314 7 102 9 107
56 190 28 47 56 93 64 102 8 8 14 27 14 40 0 26 -20 40 -115 79 -75 31 -123
69 -151 116 -17 29 -36 46 -59 54 -28 9 -34 17 -40 50 -6 35 -3 46 28 87 57
78 57 75 -42 210 -49 67 -94 131 -101 143 -6 11 -15 108 -20 218 -11 230 -19
302 -55 471 -15 69 -32 169 -38 223 l-12 98 -242 -112 -242 -111 -230 162
c-126 88 -240 165 -253 171 -20 8 -885 230 -898 230 -3 0 -637 -377 -1408
-837z"/>
</g>
</svg>
